X:14
T:Charlotte McCarthy
M:6/8
L:1/8
B:Thompson's Compleat Collection of 200 Favourite Country Dances, vol. 3 (London, 1773)
Z:Transcribed and edited by Flynn Titford-Mock, 2007
Z:abc's:AK/Fiddler's Companion
K:G
ecA dBG | gfg dBG | ceA BdG | cAF G3::Bcd ABc | gfg efg |
bge afd | ge^c d2 (d/f/) | ecA dBG | gfg dBG | ceA BdG | cAF G3 :|

